app/static/icons/individual.svg

<svg width="54" height="44" viewBox="0 0 54 44" fill="none" xmlns="http://www.w3.org/2000/svg">
<path d="M16.5585 8.51746C15.6476 8.51746 14.9126 9.25242 14.9126 10.1634C14.9126 11.0743 15.6476 11.8093 16.5585 11.8093C17.4694 11.8093 18.2044 11.0743 18.2044 10.1634C18.2044 9.25242 17.4694 8.51746 16.5585 8.51746Z" fill="white"/>
<path d="M16.5585 20.4529C15.6476 20.4529 14.9126 21.1878 14.9126 22.0988C14.9126 23.0097 15.6476 23.7447 16.5585 23.7447C17.4694 23.7447 18.2044 23.0097 18.2044 22.0988C18.2044 21.1878 17.4694 20.4529 16.5585 20.4529Z" fill="white"/>
<path d="M19.1775 34.5827V31.4772H28.4629V17.7718H36.5992L37.7172 23.5376H43.0275V31.4772H46.133V23.5376H51.6504V0.557129H4.78887V10.0702H0.410156V24.3968H4.78887V43.4126H53.4102V34.5827H19.1775ZM16.5586 26.8501C13.9396 26.8501 11.8072 24.7177 11.8072 22.0987C11.8072 19.4798 13.9396 17.3474 16.5586 17.3474C19.1775 17.3474 21.31 19.4798 21.31 22.0987C21.31 24.7177 19.1775 26.8501 16.5586 26.8501ZM16.5586 14.9147C13.9396 14.9147 11.8072 12.7823 11.8072 10.1634C11.8072 7.54443 13.9396 5.41201 16.5586 5.41201C19.1775 5.41201 21.31 7.54443 21.31 10.1634C21.31 12.7823 19.1775 14.9147 16.5586 14.9147Z" fill="white"/>
</svg>

<svg xmlns="http://www.w3.org/2000/svg" width="54" height="44" fill="#fff"><path d="M16.56 8.517c-.9 0-1.646.735-1.646 1.646s.735 1.646 1.646 1.646 1.646-.735 1.646-1.646-.735-1.646-1.646-1.646zm0 11.936c-.9 0-1.646.735-1.646 1.646s.735 1.646 1.646 1.646a1.65 1.65 0 0 0 1.644-1.645 1.65 1.65 0 0 0-1.646-1.646z"/><path d="M19.178 34.583v-3.106h9.285V17.772H36.6l1.118 5.766h5.3v7.94h3.105v-7.94h5.517V.557H4.79v9.513H.4v14.327h4.38v19.016H53.4v-8.83H19.178zm-2.62-7.733a4.76 4.76 0 0 1-4.751-4.751 4.76 4.76 0 0 1 4.751-4.751 4.76 4.76 0 0 1 4.751 4.751 4.76 4.76 0 0 1-4.751 4.751zm0-11.935a4.76 4.76 0 0 1-4.751-4.751 4.76 4.76 0 0 1 4.751-4.751 4.76 4.76 0 0 1 4.751 4.751 4.76 4.76 0 0 1-4.751 4.751z"/></svg>
